svg/u267e.svg

<svg viewBox="0 0 128 128" xmlns="http://www.w3.org/2000/svg">
  <g>
    <path d="M116.46,3.96h-104c-4.42,0-8,3.58-8,8v104c0,4.42,3.58,8,8,8h104c4.42,0,8-3.58,8-8v-104 C124.46,7.54,120.88,3.96,116.46,3.96z" fill="#8E24AA"/>
    <path d="M110.16,3.96h-98.2c-4.13,0.03-7.47,3.37-7.5,7.5v97.9c-0.01,4.14,3.34,7.49,7.48,7.5 c0.01,0,0.01,0,0.02,0h98.1c4.14,0.01,7.49-3.34,7.5-7.48c0-0.01,0-0.01,0-0.02v-97.9c0.09-4.05-3.13-7.41-7.18-7.5 C110.31,3.96,110.23,3.96,110.16,3.96z" fill="#AB47BC"/>
    <path d="M40.16,12.86c0-2.3-1.6-3-10.8-2.7c-7.7,0.3-11.5,1.2-13.8,4 s-2.9,8.5-3,15.3c0,4.8,0,9.3,2.5,9.3c3.4,0,3.4-7.9,6.2-12.3C26.66,17.76,40.16,15.86,40.16,12.86z" opacity="0.3" fill="#FAFAFA" enable-background="new "/>
    <path d="M86.76,87.46c-10.7,0-18.3-7.4-25.3-15.6c-7.1,8.2-14.6,15.6-25.3,15.6 c-11.87,0-21.5-9.63-21.5-21.5s9.63-21.5,21.5-21.5c10.7,0,18.5,7.6,25.3,15.4c6.8-7.8,14.6-15.4,25.3-15.4 c11.87,0,21.5,9.63,21.5,21.5S98.63,87.46,86.76,87.46L86.76,87.46z M66.56,65.86c6.3,7.4,12.5,13.8,20.2,13.8 c7.57,0,13.7-6.13,13.7-13.7c0-7.57-6.13-13.7-13.7-13.7C78.96,52.26,72.86,58.56,66.56,65.86z M36.16,52.26 c-7.57,0-13.7,6.13-13.7,13.7c0,7.57,6.13,13.7,13.7,13.7c0,0,0.01,0,0.01,0c7.7,0,13.9-6.4,20.2-13.8 C50.06,58.56,43.96,52.26,36.16,52.26z" fill="#FFFFFF"/>
  </g>
</svg>

<svg viewBox="0 0 128 128" xmlns="http://www.w3.org/2000/svg">
  <defs/>
  <path d="M116.46,3.96 L12.46,3.96 C8.04,3.96 4.46,7.54 4.46,11.96 L4.46,115.96 C4.46,120.38 8.04,123.96 12.46,123.96 L116.46,123.96 C120.88,123.96 124.46,120.38 124.46,115.96 L124.46,11.96 C124.46,7.54 120.88,3.96 116.46,3.96 Z" fill="#8E24AA"/>
  <path d="M110.16,3.96 L11.96,3.96 C7.83,3.99 4.49,7.33 4.46,11.46 L4.46,109.36 C4.45,113.5 7.8,116.85 11.94,116.86 C11.95,116.86 11.95,116.86 11.96,116.86 L110.06,116.86 C114.2,116.87 117.55,113.52 117.56,109.38 C117.56,109.37 117.56,109.37 117.56,109.36 L117.56,11.46 C117.65,7.41 114.43,4.05 110.38,3.96 C110.31,3.96 110.23,3.96 110.16,3.96 Z" fill="#AB47BC"/>
  <path d="M40.16,12.86 C40.16,10.56 38.56,9.86 29.36,10.16 C21.66,10.46 17.86,11.36 15.56,14.16 C13.26,16.96 12.66,22.66 12.56,29.46 C12.56,34.26 12.56,38.76 15.06,38.76 C18.46,38.76 18.46,30.86 21.26,26.46 C26.66,17.76 40.16,15.86 40.16,12.86 Z" fill="#FAFAFA" opacity="0.3"/>
  <path d="M86.76,87.46 C76.06,87.46 68.46,80.06 61.46,71.86 C54.36,80.06 46.86,87.46 36.16,87.46 C24.29,87.46 14.66,77.83 14.66,65.96 C14.66,54.09 24.29,44.46 36.16,44.46 C46.86,44.46 54.66,52.06 61.46,59.86 C68.26,52.06 76.06,44.46 86.76,44.46 C98.63,44.46 108.26,54.09 108.26,65.96 C108.26,77.83 98.63,87.46 86.76,87.46 L86.76,87.46 Z M66.56,65.86 C72.86,73.26 79.06,79.66 86.76,79.66 C94.33,79.66 100.46,73.53 100.46,65.96 C100.46,58.39 94.33,52.26 86.76,52.26 C78.96,52.26 72.86,58.56 66.56,65.86 Z M36.16,52.26 C28.59,52.26 22.46,58.39 22.46,65.96 C22.46,73.53 28.59,79.66 36.16,79.66 C36.16,79.66 36.17,79.66 36.17,79.66 C43.87,79.66 50.07,73.26 56.37,65.86 C50.06,58.56 43.96,52.26 36.16,52.26 Z" fill="#FFFFFF"/>
</svg>
